!!!COM: Corelli, Arcangelo
!!!OTL: Sonata da camera
!!!OPS: 4
!!!ONM: 5
!!!OMV: 4
!!!OMD: Gavotta: Allegro
**kern	**fb	**kern	**kern	**kern
*part4	*part4	*part3	*part2	*part1
*staff4	*	*staff3	*staff2	*staff1
*clefF4	*	*clefF4	*clefG2	*clefG2
*k[]	*	*k[]	*k[]	*k[]
*M2/2	*	*M2/2	*M2/2	*M2/2
*met(c|)	*	*met(c|)	*met(c|)	*met(c|)
=1	=1	=1	=1	=1
2r	.	2r	4cc	4a
.	.	.	4g#X	4b
4A	.	4A	4a	4cc
4E	#	4E	4r	4r
=	=	=	=	=
2AA	.	2AA	4a	4cc
.	.	.	4b	4dd
4c	.	4c	4cc	4ee
4G	.	4G	4r	4r
=	=	=	=	=
2C	5	2C	4gg	4ee
.	6	.	4ee	4aa
4D	.	4D	4aa	4ff
4E	#	4E	4r	4r
=	=	=	=	=
2F	7	2F	4a	4cc
.	6	.	4b	4dd
2E	#	2E	2g#X	2ee
=:|!|:	=:|!|:	=:|!|:	=:|!|:	=:|!|:
2r	.	2r	4g#X	4b
.	.	.	4b	4ee
4A	-	4A	4e	4cc
4G	4 2	4G	4r	4r
=	=	=	=	=
2F#X	6	2F#X	4f#X	4a
.	.	.	4a	4dd
4G	.	4G	4d	4b
4Fn	4 2	4Fn	4r	4r
=	=	=	=	=
2E	6	2E	4cc	4gg
.	.	.	4gg	4ee
4F	.	4F	2cc	(8aaL
.	.	.	.	8gg)
4C	.	4C	.	(8ff
.	.	.	.	8eeJ)
=	=	=	=	=
4G	5 4	4G	4.ccT	2dd
4GG	3	4GG	.	.
.	.	.	8b	.
4C	.	4C	2cc	2cc
4BB	4 2	4BB	.	.
=	=	=	=	=
2AA	#	2AA	2cc#X	4ee
.	.	.	.	4aa
4D	#	4D	2dd	2ff#X
4C	#4| 2	4C	.	.
=	=	=	=	=
2BB	#	2BB	2dd#X	4ff#X
.	.	.	.	4bb
4E	#	4E	2ee	2gg#X
4D	#4| 2	4D	.	.
=	=	=	=	=
2C	6	2C	4ee	4aa
.	.	.	4cc	4ee
4D	-	4D	4aa	(8ffniL
.	.	.	.	8ee)
4AA	.	4AA	4a	(8dd
.	.	.	.	8ccJ)
=	=	=	=	=
4E	#	4E	2g#X	2b
4EE	.	4EE	.	.
2AA	.	2AA	2a	2a
=:|!	=:|!	=:|!	=:|!	=:|!
*-	*-	*-	*-	*-
!!!system-decoration: [{s1,s2},s3,s4]
!!!YEM: CC BY-NC-SA 4.0; CCARH; DCML
!!!RDF**kern: i = editorial accidental